static/images/Coexist.svg

<svg width="179" height="179" viewBox="0 0 179 179" fill="none" xmlns="http://www.w3.org/2000/svg">
<circle cx="89.393" cy="89.8212" r="88.9482" fill="black" fill-opacity="0.25"/>
<mask id="mask0" mask-type="alpha" maskUnits="userSpaceOnUse" x="0" y="0" width="179" height="179">
<circle cx="89.393" cy="89.8212" r="88.9482" fill="#C4C4C4"/>
</mask>
<g mask="url(#mask0)">
<path fill-rule="evenodd" clip-rule="evenodd" d="M34.0713 135.58L52.5952 150.91L69.6626 135.58C71.7468 133.021 73.6137 129.81 74.2976 125.939C77.4118 108.284 83.7365 104.132 78.2727 102.031C73.0905 100.044 66.8621 105.001 66.8621 112.348V76.0473C66.8621 73.2068 64.5364 70.8811 61.6959 70.8811C58.8554 70.8811 56.5298 73.2068 56.5298 76.0473V69.5211C56.5298 66.6723 54.2041 64.3467 51.3636 64.3467C48.5231 64.3467 46.1975 66.6723 46.1975 69.5211V73.3112C46.1975 70.4707 43.8718 68.1451 41.0313 68.1451C38.1828 68.1451 35.8572 70.4707 35.8572 73.3112V85.1645C35.8572 82.7907 33.926 80.8512 31.5521 80.8512C29.1863 80.8512 27.0459 82.7907 27.0459 85.1645L27.0539 105.749C27.1269 116.886 27.4889 128.587 34.0713 135.58V135.58Z" fill="#D19A6E"/>
<path fill-rule="evenodd" clip-rule="evenodd" d="M35.8574 85.1649C35.8574 82.791 33.9262 80.8516 31.5524 80.8516C31.4799 80.8516 31.4076 80.8596 31.3271 80.8596V98.5954C31.3271 101.573 35.8577 101.573 35.8577 98.5954V98.2815V85.1649H35.8574Z" fill="#C38C66"/>
<path fill-rule="evenodd" clip-rule="evenodd" d="M46.198 96.9548V73.3124C46.198 70.6891 44.2103 68.5002 41.6675 68.1865V96.9551C41.6675 98.2024 42.6813 99.2162 43.9286 99.2162C45.1759 99.2162 46.198 98.2021 46.198 96.9548V96.9548Z" fill="#C38C66"/>
<path fill-rule="evenodd" clip-rule="evenodd" d="M56.53 95.6579V76.0471V69.5209V69.4886C56.514 66.8733 54.5343 64.7007 51.9995 64.3867V95.6579C51.9995 96.9052 53.0216 97.9273 54.2686 97.9273C55.5079 97.9273 56.53 96.9052 56.53 95.6579V95.6579Z" fill="#C38C66"/>
<path fill-rule="evenodd" clip-rule="evenodd" d="M78.2726 102.031C76.6069 101.388 74.8367 101.468 73.195 102.112C78.2886 104.236 72.0844 108.517 69.0107 125.939C68.0691 131.259 64.8986 135.347 61.9858 138.179H67.2727C70.1857 135.347 73.3562 131.259 74.2975 125.939C77.4115 108.284 83.7365 104.132 78.2726 102.031V102.031Z" fill="#C38C66"/>
<path fill-rule="evenodd" clip-rule="evenodd" d="M105.029 115.519L126.45 125.296L143.944 115.519C146.221 112.718 148.265 109.202 149.005 104.977C152.417 85.6718 159.329 81.1253 153.358 78.832C147.693 76.6593 140.886 82.0829 140.886 90.1141V50.4256C140.886 47.3193 138.343 44.7765 135.237 44.7765C132.131 44.7765 129.588 47.3193 129.588 50.4256V43.2878C129.588 40.1815 127.045 37.6387 123.939 37.6387C120.825 37.6387 118.282 40.1815 118.282 43.2878V47.4321C118.282 44.3258 115.739 41.783 112.633 41.783C109.527 41.783 106.984 44.3258 106.984 47.4321V60.388C106.984 57.8049 104.868 55.6805 102.277 55.6805C99.6858 55.6805 97.3442 57.8049 97.3442 60.388L97.3602 82.8958C97.4327 95.0791 97.8349 107.874 105.029 115.519V115.519Z" fill="#FFE4C1"/>
<path fill-rule="evenodd" clip-rule="evenodd" d="M106.985 60.3872C106.985 57.8041 104.869 55.6797 102.278 55.6797C102.197 55.6797 102.117 55.6877 102.036 55.6877V75.0813C102.036 78.3322 106.985 78.3322 106.985 75.0813V74.7353V60.3872Z" fill="#F1D0A5"/>
<path fill-rule="evenodd" clip-rule="evenodd" d="M118.283 73.2793V47.4321C118.283 44.5593 116.118 42.1692 113.334 41.8232V73.2793C113.334 74.6474 114.445 75.758 115.812 75.758C117.172 75.758 118.283 74.6474 118.283 73.2793Z" fill="#F1D0A5"/>
<path fill-rule="evenodd" clip-rule="evenodd" d="M129.588 71.8709V50.4254V43.2875V43.2553C129.572 40.3985 127.408 38.0246 124.631 37.6787V71.8709C124.631 73.2309 125.75 74.3495 127.11 74.3495C128.47 74.3495 129.588 73.2309 129.588 71.8709V71.8709Z" fill="#F1D0A5"/>
<path fill-rule="evenodd" clip-rule="evenodd" d="M153.359 78.8325C151.54 78.1403 149.601 78.2208 147.807 78.929C153.375 81.2466 146.592 85.9218 143.228 104.977C142.206 110.787 138.738 115.262 135.551 118.36H141.337C144.516 115.262 147.984 110.787 149.006 104.977C152.417 85.6723 159.33 81.1258 153.359 78.8325V78.8325Z" fill="#F1D0A5"/>
<path fill-rule="evenodd" clip-rule="evenodd" d="M30.08 135.579H71.9401C72.7044 135.579 73.3241 136.207 73.3241 136.971V177.336C73.3241 178.1 72.7044 178.728 71.9401 178.728H30.08C29.3156 178.728 28.688 178.1 28.688 177.336V136.971C28.688 136.207 29.3156 135.579 30.08 135.579V135.579Z" fill="#C3DDFF"/>
<path fill-rule="evenodd" clip-rule="evenodd" d="M62.7831 178.728H71.9406C72.7049 178.728 73.3246 178.1 73.3246 177.336V136.971C73.3246 136.207 72.7049 135.579 71.9406 135.579H69.6632H64.3926H64.3766H62.7671C63.2258 135.579 63.6362 135.813 63.8937 136.159C64.0546 136.392 64.1511 136.673 64.1511 136.971V138.178V177.336C64.1508 178.092 63.5394 178.72 62.7831 178.728Z" fill="#9DC6FB"/>
<path fill-rule="evenodd" clip-rule="evenodd" d="M79.4318 63.3578L88.6375 54.2243L89.8928 52.985C92.9908 49.7743 92.9908 44.5274 89.8928 41.3246C87.0845 38.4116 82.5381 39.1357 79.5365 41.8478C78.9814 42.3467 78.7882 42.5962 78.6352 42.5962C78.4905 42.5962 78.2892 42.3467 77.7338 41.8478C74.7323 39.136 70.1938 38.4116 67.3775 41.3246C64.2876 44.5274 64.2876 49.774 67.3775 52.985L68.6328 54.2243L77.8466 63.3578C78.2407 63.6718 78.442 63.8407 78.6352 63.8487C78.8364 63.8407 79.0374 63.6718 79.4318 63.3578V63.3578Z" fill="#FF8086"/>
<path fill-rule="evenodd" clip-rule="evenodd" d="M79.4315 63.3578L88.6372 54.2243L89.8925 52.985C92.9905 49.7743 92.9905 44.5274 89.8925 41.3247C89.5786 40.9947 89.2406 40.713 88.8867 40.4798C87.213 39.3612 85.1611 39.2083 83.2136 39.7717C83.3906 39.9969 83.5596 40.2383 83.7126 40.4798C85.7082 43.6665 85.3623 48.0118 82.6665 50.8044L81.4112 52.0517L73.9194 59.4712L77.8463 63.3581C78.2405 63.6721 78.4417 63.841 78.6349 63.849C78.8361 63.8408 79.0371 63.6718 79.4315 63.3578V63.3578Z" fill="#E5646E"/>
<path fill-rule="evenodd" clip-rule="evenodd" d="M100.716 115.519H146.382C147.244 115.519 147.952 116.227 147.952 117.096V177.192C147.952 178.061 147.244 178.769 146.382 178.769H100.716C99.8471 178.769 99.147 178.061 99.147 177.192V117.096C99.1472 116.227 99.8471 115.519 100.716 115.519Z" fill="#ECEAED"/>
<path fill-rule="evenodd" clip-rule="evenodd" d="M133.886 178.769H146.382C147.244 178.769 147.952 178.061 147.952 177.192V117.096C147.952 116.227 147.244 115.519 146.382 115.519H143.944H138.183H138.167H133.862C134.731 115.519 135.439 116.227 135.439 117.096V177.192C135.439 178.053 134.738 178.753 133.886 178.769V178.769Z" fill="#DAD8DB"/>
<path fill-rule="evenodd" clip-rule="evenodd" d="M109.187 158.794L122.095 145.999L123.857 144.261C128.194 139.763 128.194 132.408 123.857 127.917C119.914 123.837 113.549 124.859 109.34 128.65C108.56 129.35 108.286 129.704 108.077 129.696C107.868 129.704 107.594 129.35 106.814 128.65C102.605 124.86 96.24 123.837 92.3052 127.917C87.9679 132.408 87.9679 139.763 92.3052 144.261L94.0594 145.999L106.967 158.794C107.522 159.237 107.804 159.478 108.077 159.486C108.359 159.478 108.632 159.237 109.187 158.794V158.794Z" fill="#FF8086"/>
<path fill-rule="evenodd" clip-rule="evenodd" d="M123.857 144.262C128.194 139.764 128.194 132.408 123.857 127.918C122.272 126.276 120.292 125.464 118.224 125.319C117.025 125.238 115.794 125.383 114.587 125.721C114.611 125.737 114.627 125.761 114.651 125.777C118.989 130.276 118.989 137.631 114.651 142.121L102.396 154.264L106.967 158.795C107.522 159.237 107.804 159.479 108.077 159.487C108.359 159.479 108.632 159.237 109.188 158.795L122.095 146L123.857 144.262Z" fill="#E5646E"/>
<path d="M140.886 87.9855V50.4252C140.886 47.5525 138.714 45.1623 135.929 44.8164V90.1138C135.929 90.2513 135.944 90.3856 135.965 90.5173C132.191 93.1575 129.094 96.6606 128.187 99.5574C127.838 100.672 128.382 101.909 129.485 102.294C129.72 102.376 129.959 102.416 130.193 102.416C131.115 102.416 131.965 101.812 132.236 100.882C132.823 98.8735 136.727 94.4232 140.467 92.2941C140.729 92.145 140.886 91.8619 140.886 91.5606V87.9855H140.886Z" fill="#F1D0A5"/>
<path d="M66.8628 110.22V76.0478C66.8628 73.4245 64.8834 71.2356 62.3323 70.9219V111.922C62.3323 112.187 62.208 112.435 61.9982 112.597C59.8333 114.271 55.7965 118.469 55.0415 121.054C54.7118 122.183 55.3599 123.365 56.4889 123.695C56.6882 123.753 56.8891 123.781 57.0868 123.781C58.0088 123.781 58.8586 123.177 59.1301 122.248C59.6544 120.452 62.0379 117.048 66.3848 114.844C66.6751 114.697 66.8625 114.405 66.8625 114.079V110.22H66.8628Z" fill="#C38C66"/>
</g>
</svg>

<svg width="179" height="179" fill="none" xmlns="http://www.w3.org/2000/svg"><circle cx="89.393" cy="89.821" r="88.948" fill="#000" fill-opacity=".25"/><mask id="a" maskUnits="userSpaceOnUse" x="0" y="0" width="179" height="179"><circle cx="89.393" cy="89.821" r="88.948" fill="#C4C4C4"/></mask><g mask="url(#a)"><path fill-rule="evenodd" clip-rule="evenodd" d="M34.071 135.58l18.524 15.33 17.068-15.33c2.084-2.559 3.95-5.77 4.635-9.641 3.114-17.655 9.439-21.807 3.975-23.908-5.182-1.987-11.41 2.97-11.41 10.317v-36.3c0-2.841-2.327-5.167-5.167-5.167s-5.166 2.326-5.166 5.166v-6.526c0-2.849-2.326-5.174-5.166-5.174-2.84 0-5.166 2.325-5.166 5.174v3.79c0-2.84-2.326-5.166-5.167-5.166-2.848 0-5.174 2.326-5.174 5.166v11.853a4.317 4.317 0 0 0-4.305-4.313c-2.366 0-4.506 1.94-4.506 4.314l.008 20.584c.073 11.137.435 22.838 7.017 29.831z" fill="#D19A6E"/><path fill-rule="evenodd" clip-rule="evenodd" d="M35.857 85.165a4.317 4.317 0 0 0-4.305-4.313c-.072 0-.144.008-.225.008v17.735c0 2.978 4.53 2.978 4.53 0v-13.43zm10.341 11.79V73.312c0-2.623-1.988-4.812-4.53-5.126v28.77a2.263 2.263 0 0 0 2.26 2.26 2.27 2.27 0 0 0 2.27-2.261zm10.332-1.297V69.489A5.188 5.188 0 0 0 52 64.387v31.27a2.277 2.277 0 0 0 2.269 2.27 2.276 2.276 0 0 0 2.261-2.27zm21.743 6.373c-1.666-.643-3.436-.563-5.078.081 5.094 2.124-1.11 6.405-4.184 23.827-.942 5.32-4.112 9.408-7.025 12.24h5.287c2.913-2.832 6.083-6.92 7.025-12.24 3.114-17.655 9.439-21.807 3.975-23.908z" fill="#C38C66"/><path fill-rule="evenodd" clip-rule="evenodd" d="M105.029 115.519l21.421 9.777 17.494-9.777c2.277-2.801 4.321-6.317 5.061-10.542 3.412-19.305 10.324-23.852 4.353-26.145-5.665-2.173-12.472 3.25-12.472 11.282V50.426c0-3.107-2.543-5.65-5.649-5.65s-5.649 2.543-5.649 5.65v-7.138c0-3.106-2.543-5.65-5.649-5.65-3.114 0-5.657 2.544-5.657 5.65v4.144c0-3.106-2.543-5.649-5.649-5.649s-5.649 2.543-5.649 5.65v12.955c0-2.583-2.116-4.707-4.707-4.707-2.591 0-4.933 2.124-4.933 4.707l.016 22.508c.073 12.183.475 24.978 7.669 32.623z" fill="#FFE4C1"/><path fill-rule="evenodd" clip-rule="evenodd" d="M106.985 60.387c0-2.583-2.116-4.707-4.707-4.707-.081 0-.161.008-.242.008V75.08c0 3.251 4.949 3.251 4.949 0V60.387zm11.298 12.893V47.431a5.666 5.666 0 0 0-4.949-5.609V73.28a2.48 2.48 0 0 0 2.478 2.479c1.36 0 2.471-1.11 2.471-2.479zm11.305-1.41V43.256c-.016-2.857-2.18-5.23-4.957-5.576v34.19a2.49 2.49 0 0 0 2.479 2.479 2.49 2.49 0 0 0 2.478-2.48zm23.771 6.962c-1.819-.692-3.758-.611-5.552.097 5.568 2.318-1.215 6.993-4.579 26.048-1.022 5.81-4.49 10.285-7.677 13.383h5.786c3.179-3.098 6.647-7.573 7.669-13.383 3.411-19.305 10.324-23.851 4.353-26.145z" fill="#F1D0A5"/><path fill-rule="evenodd" clip-rule="evenodd" d="M30.08 135.579h41.86c.764 0 1.384.628 1.384 1.392v40.365c0 .764-.62 1.392-1.384 1.392H30.08a1.398 1.398 0 0 1-1.392-1.392v-40.365c0-.764.628-1.392 1.392-1.392z" fill="#C3DDFF"/><path fill-rule="evenodd" clip-rule="evenodd" d="M62.783 178.728h9.158c.764 0 1.384-.628 1.384-1.392v-40.365c0-.764-.62-1.392-1.384-1.392h-9.174c.459 0 .87.234 1.127.58.16.233.257.514.257.812v40.365c0 .756-.612 1.384-1.368 1.392z" fill="#9DC6FB"/><path fill-rule="evenodd" clip-rule="evenodd" d="M79.432 63.358l9.206-9.134 1.255-1.239c3.098-3.21 3.098-8.458 0-11.66-2.808-2.913-7.355-2.19-10.356.523-.556.499-.749.748-.902.748-.145 0-.346-.25-.901-.748-3.002-2.712-7.54-3.436-10.356-.523-3.09 3.202-3.09 8.449 0 11.66l1.255 1.24 9.214 9.133c.394.314.595.483.788.49.201-.007.402-.176.797-.49z" fill="#FF8086"/><path fill-rule="evenodd" clip-rule="evenodd" d="M79.431 63.358l9.206-9.134 1.255-1.239c3.099-3.21 3.099-8.458 0-11.66a5.777 5.777 0 0 0-1.005-.845c-1.674-1.119-3.726-1.272-5.673-.708.177.225.346.466.499.708 1.995 3.187 1.65 7.532-1.046 10.324l-1.256 1.248-7.492 7.42 3.927 3.886c.394.314.596.483.789.491.201-.008.402-.177.796-.491z" fill="#E5646E"/><path fill-rule="evenodd" clip-rule="evenodd" d="M100.716 115.519h45.666c.862 0 1.57.708 1.57 1.577v60.096c0 .869-.708 1.577-1.57 1.577h-45.666a1.573 1.573 0 0 1-1.569-1.577v-60.096c0-.869.7-1.577 1.569-1.577z" fill="#ECEAED"/><path fill-rule="evenodd" clip-rule="evenodd" d="M133.886 178.769h12.496c.862 0 1.57-.708 1.57-1.577v-60.096c0-.869-.708-1.577-1.57-1.577h-12.52a1.58 1.58 0 0 1 1.577 1.577v60.096c0 .861-.701 1.561-1.553 1.577z" fill="#DAD8DB"/><path fill-rule="evenodd" clip-rule="evenodd" d="M109.187 158.794l12.908-12.795 1.762-1.738c4.337-4.498 4.337-11.853 0-16.344-3.943-4.08-10.308-3.058-14.517.733-.78.7-1.054 1.054-1.263 1.046-.209.008-.483-.346-1.263-1.046-4.209-3.79-10.574-4.813-14.509-.733-4.337 4.491-4.337 11.846 0 16.344l1.754 1.738 12.908 12.795c.555.443.837.684 1.11.692.282-.008.555-.249 1.11-.692z" fill="#FF8086"/><path fill-rule="evenodd" clip-rule="evenodd" d="M123.857 144.262c4.337-4.498 4.337-11.854 0-16.344-1.585-1.642-3.565-2.454-5.633-2.599-1.199-.081-2.43.064-3.637.402.024.016.04.04.064.056 4.338 4.499 4.338 11.854 0 16.344l-12.255 12.143 4.571 4.531c.555.442.837.684 1.11.692.282-.008.555-.25 1.111-.692L122.095 146l1.762-1.738z" fill="#E5646E"/><path d="M140.886 87.986v-37.56c0-2.873-2.172-5.264-4.957-5.61v45.298c0 .137.015.272.036.403-3.774 2.64-6.871 6.144-7.778 9.04-.349 1.115.195 2.352 1.298 2.737a2.13 2.13 0 0 0 2.751-1.412c.587-2.008 4.491-6.459 8.231-8.588a.842.842 0 0 0 .419-.733v-3.576z" fill="#F1D0A5"/><path d="M66.863 110.22V76.048a5.179 5.179 0 0 0-4.53-5.126v41a.853.853 0 0 1-.335.675c-2.165 1.674-6.201 5.872-6.956 8.457a2.13 2.13 0 0 0 4.088 1.194c.524-1.796 2.908-5.2 7.255-7.404a.859.859 0 0 0 .477-.765v-3.859z" fill="#C38C66"/></g></svg>
